!!!!SEGMENT: pl-gd--ee-2628--007-005_stabile-annibale--sacrarum-modulationum-pacem-relinquo.krn
!!!cenid: 15xx:1094
!!!COM: Stabile, Annibale
!!!COM-rismID: pe30009662
!!!CDT: ~1535-1595/04
!!!CNT: Italian
!!!GTL: Sacrarum modulationum
!!!OTL: Pacem relinquo
!!!OMV: 005
!!!PDT: 1585
!!!AGN:
!!!SMS-siglum: PL-GD
!!!SMS-shelfmark: Ee 2628
!!!SMS-shelfwork: 007-005 G
!!!SMS-variant:
!!!SMS-altvar:
!!!NIFC-rismSourceID: 1001203361
!!!NIFC-rismChildID: 990060529
!!!NIFC-islandoraID: pl-gd:66139
!!!URL-pdf-islandora: https://repozytorium.nifc.pl/islandora/object/pl-gd%3A66139/datastream/PDF/view
!!!URL-scan: https://polish.musicsources.pl/pl/lokalizacje/galeria/klocki-introligatorskie/673 @EN{Scan on Polish Music Sources Website} @PL{Skany w portalu Dziedzictwo Muzyki Polskiej w otwartym dostępie}
!!!IIIF:
!!!ONB-nifc: UWAGA: Cantus: s. 102-113, Tenore: s. 258-269, Basso: s. 414-425, Quinto: s. 736-747, Sextus: s. 624-632. Dla głosu Alto proszę skorzystać z https://pbc.gda.pl/dlibra/publication/87583/edition/79412/content, s. 25-48. Uwaga: utwory podzielone wg spisu treści dostępnych na końcu ksiąg – proszę sprawdzać sąsiednie tytuły i zwracać uwagę na liczbę głosów. Głosy Quinto i Sextus proszę umieszczać wg ambitusu (może się różnić w zależności od utworu).
!!!AIN: 1 alto 1 bass 1 soprn 1 tenor 2 vox
!!!key: C
**kern	**text	**kern	**text	**kern	**kern	**text	**kern	**text	**kern	**text
*part6	*part6	*part5	*part5	*part4	*part3	*part3	*part2	*part2	*part1	*part1
*staff6	*staff6	*staff5	*staff5	*staff4	*staff3	*staff3	*staff2	*staff2	*staff1	*staff1
*I"BASSVS	*	*I"TENOR	*	*I"SEXTVS	*I"ALTVS	*	*I"QVINTVS	*	*I"CANTVS	*
*I'B	*	*I'T	*	*I'V 6	*I'A	*	*I'V 5	*	*I'S	*
*ICvox	*	*ICvox	*	*ICvox	*ICvox	*	*ICvox	*	*ICvox	*
*Ibass	*	*Itenor	*	*Ivox	*Ialto	*	*Ivox	*	*Isoprn	*
*clefF3	*	*clefC3	*	*clefC3	*clefC2	*	*clefG2	*	*clefG2	*
*k[]	*	*k[]	*	*k[]	*k[]	*	*k[]	*	*k[]	*
*C:	*	*C:	*	*C:	*C:	*	*C:	*	*C:	*
*M2/1	*	*M2/1	*	*M2/1	*M2/1	*	*M2/1	*	*M2/1	*
*met(C|)	*	*met(C|)	*	*met(C|)	*met(C|)	*	*met(C|)	*	*met(C|)	*
=1-	=1-	=1-	=1-	=1-	=1-	=1-	=1-	=1-	=1-	=1-
00r	.	0d	PA-	0ryy	00r	.	00r	.	00r	.
=2-	=2-	=2-	=2-	=2-	=2-	=2-	=2-	=2-	=2-	=2-
.	.	1B	-cem	0ryy	.	.	.	.	.	.
.	.	1G	re-	.	.	.	.	.	.	.
=3-	=3-	=3-	=3-	=3-	=3-	=3-	=3-	=3-	=3-	=3-
00r	.	2.c/	-lin-	0ryy	0g	PA-	00r	.	1r	.
.	.	4d\	.	.	.	.	.	.	.	.
.	.	4e\	.	.	.	.	.	.	0g	PA-
.	.	4f\	.	.	.	.	.	.	.	.
!	!	!LO:TX:t=P:problem:kreska pseudotaktowa zapisana ołówkiem	!	!	!	!	!	!	!	!
.	.	2e\	.	.	.	.	.	.	.	.
=4-	=4-	=4-	=4-	=4-	=4-	=4-	=4-	=4-	=4-	=4-
.	.	2c/	-quo	0ryy	1e	-cem	.	.	.	.
.	.	2.g\	vo-	.	.	.	.	.	.	.
.	.	.	.	.	1d	re-	.	.	1a	-cem
.	.	8f\	.	.	.	.	.	.	.	.
.	.	8e\	.	.	.	.	.	.	.	.
!	!	!LO:TX:t=P:problem:kreska pseudotaktowa zapisana ołówkiem	!	!	!	!	!	!	!	!
.	.	2f\	.	.	.	.	.	.	.	.
=5-	=5-	=5-	=5-	=5-	=5-	=5-	=5-	=5-	=5-	=5-
0G	PA-	2e\	-bis	0ryy	2.g\	-lin-	1r	.	1b	re-
.	.	2d\	re-	.	.	.	.	.	.	.
.	.	.	.	.	4a\	.	.	.	.	.
.	.	2d\	-lin-	.	4b\	.	0g	PA-	1.dd	-lin-
.	.	.	.	.	4cc\	.	.	.	.	.
.	.	2d\	-quo	.	2.b\	.	.	.	.	.
=6-	=6-	=6-	=6-	=6-	=6-	=6-	=6-	=6-	=6-	=6-
1E	-cem	1G	vo-	0ryy	.	.	.	.	.	.
.	.	.	.	.	4a\	.	.	.	.	.
.	.	.	.	.	1g	.	.	.	2cc\	-quo
!	!	!LO:TX:t=P:problem:kreska pseudotaktowa zapisana ołówkiem	!	!	!	!	!	!	!	!
1D	re-	1d	-bis	.	.	.	1a	-cem	1dd	vo-
.	.	.	.	.	2f#X\	-quo	.	.	.	.
=7-	=7-	=7-	=7-	=7-	=7-	=7-	=7-	=7-	=7-	=7-
2.G\	-lin-	0r	.	0ryy	1.g	vo-	1b	re-	1dd	-bis
4A\	.	.	.	.	.	.	.	.	.	.
4B\	.	.	.	.	.	.	1.dd	-lin-	0r	.
4c\	.	.	.	.	.	.	.	.	.	.
2d\	.	.	.	.	4fny\	.	.	.	.	.
.	.	.	.	.	4e/	.	.	.	.	.
*	*	*custos:g	*	*	*	*	*	*	*	*
!	!	!LO:LB:g=original	!	!	!	!	!	!	!	!
=8-	=8-	=8-	=8-	=8-	=8-	=8-	=8-	=8-	=8-	=8-
2B\	-quo	0g	Pa-	0ryy	2d/	.	.	.	.	.
2c\	vo-	.	.	.	2e/	.	2cc\	-quo	.	.
1G	-bis	.	.	.	1d	-bis	1b	vo-	2r	.
*	*	*	*	*	*	*ij	*	*	*	*ij
.	.	.	.	.	.	.	.	.	1dd\	PA-
=9-	=9-	=9-	=9-	=9-	=9-	=9-	=9-	=9-	=9-	=9-
00r	.	1e	-cem	0ryy	2r	.	2g/	-bis	.	.
.	.	.	.	.	2g\	PA-	1gg	Pa-	2cc#X\	.
*	*	*	*	*	*custos:a	*	*	*	*	*
!	!	!	!	!	!LO:LB:g=original	!	!	!	!	!
.	.	1d	re-	.	1a	-cem	.	.	2dd\	-cem
.	.	.	.	.	.	.	2ff#X\	-cem	2.dd\	re-
=10-	=10-	=10-	=10-	=10-	=10-	=10-	=10-	=10-	=10-	=10-
.	.	2.g\	-lin-	0ryy	2b#X\	re-	2gg\	re-	.	.
.	.	.	.	.	.	.	.	.	4ccny\	.
.	.	.	.	.	1g	-lin-	2.gg\	-lim-	4b/	.
.	.	4f\	.	.	.	.	.	.	4a/	.
.	.	4e\	.	.	.	.	.	.	2b/	.
.	.	4d\	.	.	.	.	4ffny\	.	.	.
!	!	!LO:TX:t=P:problem:kreska pseudotaktowa zapisana ołówkiem	!	!	!	!	!	!	!dd	!
.	.	2c/	.	.	2g\	-quo	2ee\	.	2cc\	-lin-
*	*	*	*	*	*	*	*	*	*custos:dd	*
!	!	!	!	!	!	!	!	!	!LO:LB:g=original	!
=11-	=11-	=11-	=11-	=11-	=11-	=11-	=11-	=11-	=11-	=11-
0r	.	2B/	-quo	0ryy	1g	vo-	2dd\	-quo	2dd\	.
.	.	2c/	vo-	.	.	.	1cc	vo-	2ee\	-quo
!	!	!LO:TX:t=P:problem:kreska pseudotaktowa zapisana ołówkiem	!	!	!	!	!	!	!	!
.	.	1G	-bis	.	0g	-bis	.	.	0dd	vo-
*	*	*	*	*	*	*Xij	*custos:b	*	*	*
!	!	!	!	!	!	!	!LO:LB:g=original	!	!	!
.	.	.	.	.	.	.	4b/	.	.	.
.	.	.	.	.	.	.	4a/	.	.	.
=12-	=12-	=12-	=12-	=12-	=12-	=12-	=12-	=12-	=12-	=12-
0G	Pa-	1r	.	0ryy	.	.	2.b/	.	.	.
.	.	.	.	.	.	.	4cc\	.	.	.
!	!	!LO:TX:t=P:problem:kreska pseudotaktowa zapisana ołówkiem	!	!	!	!	!	!	!	!
.	.	0G	Pa-	.	2r	.	1dd	.	1b	-bis
.	.	.	.	.	1d/	Pa-	.	.	.	.
=13-	=13-	=13-	=13-	=13-	=13-	=13-	=13-	=13-	=13-	=13-
1E	-cem	.	.	0ryy	.	.	2g/	-bis	0r	.
.	.	.	.	.	2c#X/	-cem	1gg	Pa-	.	.
1D	me-	1A	-cem	.	2d/	me-	.	.	.	.
.	.	.	.	.	2.d/	-am	2ff#X\	-cem	.	.
*custos:G	*	*	*	*	*	*	*	*	*	*Xij
!LO:LB:g=original	!	!	!	!	!	!	!	!	!	!
=14-	=14-	=14-	=14-	=14-	=14-	=14-	=14-	=14-	=14-	=14-
2.G\	-am	1B	me-	0ryy	.	.	2gg\	me-	0dd	Pa-
.	.	.	.	.	4cny/	.	.	.	.	.
.	.	.	.	.	4B/	.	2.g/	-am	.	.
4A\	.	.	.	.	4A/	.	.	.	.	.
4B\	.	1.d	-am	.	2.G/	.	.	.	.	.
4c\	.	.	.	.	.	.	4a/	.	.	.
2d\	.	.	.	.	.	.	4b/	.	.	.
.	.	.	.	.	4A/	.	4cc\	.	.	.
=15-	=15-	=15-	=15-	=15-	=15-	=15-	=15-	=15-	=15-	=15-
1G	do	.	.	0ryy	4B/	.	2dd\	.	1b	-cem
.	.	.	.	.	4c/	.	.	.	.	.
.	.	2B/	do	.	4d/	.	2dd\	do	.	.
.	.	.	.	.	4B/	.	.	.	.	.
2.c\	vo-	2.e\	vo-	.	2c/	.	2.cc\	vo-	1g	me-
.	.	.	.	.	2e/	do	.	.	.	.
4B\	.	4d\	.	.	.	.	4dd\	.	.	.
*	*	*	*	*	*custos:e	*	*	*	*	*
!	!	!	!	!	!LO:LB:g=original	!	!	!	!	!
=16-	=16-	=16-	=16-	=16-	=16-	=16-	=16-	=16-	=16-	=16-
4A\	.	2.c/	.	0ryy	2.e/	vo-	2ee\	.	2.cc\	-am
4G\	.	.	.	.	.	.	.	.	.	.
1A	.	.	.	.	.	.	2a/	-bis	.	.
.	.	4B/	.	.	4d/	.	.	.	4dd\	.
*	*	*custos:A	*	*	*	*	*	*	*	*
!	!	!LO:LB:g=original	!	!	!	!	!	!	!	!
.	.	2A/	.	.	4c/	.	0r	.	4ee\	.
.	.	.	.	.	4A/	.	.	.	4ff\	.
4G\	.	2B/	-bis	.	2.d/	.	.	.	2.gg\	.
4F/	.	.	.	.	.	.	.	.	.	.
=17-	=17-	=17-	=17-	=17-	=17-	=17-	=17-	=17-	=17-	=17-
*lig	*	*	*ij	*	*	*	*	*ij	*	*
!	!	!LO:TX:t=P:problem:kreska pseudotaktowa zapisana ołówkiem	!	!	!	!	!	!	!	!
1E	.	1G	Pa-	0ryy	.	.	.	.	.	.
.	.	.	.	.	8c/	.	.	.	4ee\	do
.	.	.	.	.	8B/	.	.	.	.	.
.	.	.	.	.	2c/	.	.	.	2.gg\	vo-
*	*	*	*	*	*	*	*custos:dd	*	*	*
!	!	!	!	!	!	!	!LO:LB:g=original	!	!	!
1D	.	1A	-cem	.	1d	-bis	0dd	Pa-	.	.
.	.	.	.	.	.	.	.	.	8ff#X\	.
.	.	.	.	.	.	.	.	.	8ee\	.
.	.	.	.	.	.	.	.	.	2ff#X\	.
*Xlig	*	*	*	*	*	*	*	*	*	*
=18-	=18-	=18-	=18-	=18-	=18-	=18-	=18-	=18-	=18-	=18-
0G	-bis	2B/	me-	0ryy	1r	.	.	.	1gg	-bis
.	.	1d	.	.	.	.	.	.	.	.
*	*	*	*	*	*	*	*	*	*custos:gg	*ij
!	!	!	!	!	!	!	!	!	!LO:LB:g=original	!
.	.	.	.	.	1g	Pa-	1b	.	2r	.
.	.	2B/	-am	.	.	.	.	.	1gg\	Pa-
=19-	=19-	=19-	=19-	=19-	=19-	=19-	=19-	=19-	=19-	=19-
*	*	*lig	*	*	*	*	*	*	*	*
00r	.	1c	.	0ryy	2.e/	-cem	1g	-cem	.	.
.	.	.	.	.	.	.	.	.	1ee	-cem
.	.	.	.	.	4d/	.	.	.	.	.
*	*	*col	*	*	*	*	*	*	*	*
.	.	2.A/	do	.	2c/	.	2.cc\	me-	.	.
.	.	.	.	.	1cc\	me-	.	.	2a/	me-
*	*	*Xlig	*	*	*	*	*	*	*	*
.	.	4B/	vo-	.	.	.	4dd\	.	.	.
*	*	*Xcol	*	*	*	*	*	*	*	*
=20-	=20-	=20-	=20-	=20-	=20-	=20-	=20-	=20-	=20-	=20-
.	.	4c/	.	0ryy	.	.	4ee\	.	2.g/	.
.	.	4d\	.	.	.	.	4ffny\	.	.	.
.	.	2.e\	.	.	4bny\	.	2.gg\	.	.	.
.	.	.	.	.	4a\	.	.	.	4a/	.
.	.	.	.	.	2g\	.	.	.	2b/	-am
.	.	4d\	.	.	.	.	4ff\	.	.	.
.	.	4c/	.	.	1g\	-am	4ee\	-am	2cc\	do
.	.	4B/	.	.	.	.	4dd\	.	.	.
=21-	=21-	=21-	=21-	=21-	=21-	=21-	=21-	=21-	=21-	=21-
0r	.	2c/	.	0ryy	.	.	2ee\	do	1a	vo-
.	.	2d\	.	.	2f\	do	1dd	vo-	.	.
.	.	1A	.	.	1e	vo-	.	.	1a	-bis
.	.	.	.	.	.	.	2cc#X\	.	.	.
*	*	*	*	*	*	*	*	*	*	*Xij
=22-	=22-	=22-	=22-	=22-	=22-	=22-	=22-	=22-	=22-	=22-
2r	.	0d	-bis	0ryy	2f#X\	-bis	1dd	-bis	2r	.
2D/	Non	.	.	.	2f#\	Non	.	.	2a/	Non
*custos:G	*	*	*Xij	*	*	*	*	*Xij	*	*
!LO:LB:g=original	!	!	!	!	!	!	!	!	!	!
2.G\	quo-	.	.	.	2.g\	quo-	0r	.	2.b/	quo-
4G\	-mo-	.	.	.	4g\	-mo-	.	.	4b/	-mo-
=23-	=23-	=23-	=23-	=23-	=23-	=23-	=23-	=23-	=23-	=23-
2G\	-do	1r	.	0ryy	2g\	-do	.	.	2b/	-do
1C	mun-	.	.	.	1e	mun-	.	.	1cc	mun-
.	.	2r	.	.	.	.	1g	Non	.	.
2E/	-dus	2G/	Non	.	2g\	-dus	.	.	2b/	-dus
*	*	*	*	*	*custos:f#	*	*	*	*	*
!	!	!	!	!	!LO:LB:g=original	!	!	!	!	!
=24-	=24-	=24-	=24-	=24-	=24-	=24-	=24-	=24-	=24-	=24-
1D	dat	2.d\	quo-	0ryy	1f#X	dat	2.a/	quo-	0dd	dat
.	.	4d\	-mo-	.	.	.	4a/	-mo-	.	.
1r	.	2d\	-do	.	1r	.	2a/	-do	.	.
.	.	1G/	mun-	.	.	.	1b\	mun-	.	.
=25-	=25-	=25-	=25-	=25-	=25-	=25-	=25-	=25-	=25-	=25-
*	*	*	*	*	*	*ij	*	*	*	*ij
00r	.	.	.	0ryy	1d	Non	.	.	1g	Non
.	.	2B/	-dus	.	.	.	2dd\	-dus	.	.
.	.	2A/	dat	.	2.e/	quo-	1cc#X	dat	2.a/	quo-
.	.	2A/	e-	.	.	.	.	.	.	.
.	.	.	.	.	4e/	-mo-	.	.	4a/	-mo-
*	*	*custos:d	*	*	*	*	*	*	*	*
!	!	!LO:LB:g=original	!	!	!	!	!	!	!	!
=26-	=26-	=26-	=26-	=26-	=26-	=26-	=26-	=26-	=26-	=26-
.	.	4d\	-go	0ryy	2f#X\	-do	2r	.	2a/	-do
.	.	4c/	.	.	.	.	.	.	.	.
.	.	4B/	.	.	1g	mun-	2dd\	e-	1b	mun-
.	.	4A/	.	.	.	.	.	.	.	.
.	.	2G/	.	.	.	.	2dd\	-go	.	.
.	.	2G/	do	.	2b\	-dus	2gg\	do	2dd\	-dus
*	*	*	*	*	*	*	*custos:ee	*	*	*
!	!	!	!	!	!	!	!LO:LB:g=original	!	!	!
=27-	=27-	=27-	=27-	=27-	=27-	=27-	=27-	=27-	=27-	=27-
1r	.	1A	vo-	0ryy	0a	dat	1ee	vo-	1cc#X	dat
*	*	*	*	*	*	*Xij	*	*	*custos:dd	*Xij
!	!	!	!	!	!	!	!	!	!LO:LB:g=original	!
2r	.	2d\	-bis	.	.	.	2dd\	-bis	2r	.
2D/	e-	4d\	e-	.	.	.	2ff#X\	e-	2dd\	e-
.	.	4c/	.	.	.	.	.	.	.	.
=28-	=28-	=28-	=28-	=28-	=28-	=28-	=28-	=28-	=28-	=28-
4G\	-go	4B/	.	0ryy	2r	.	2.gg\	-go	2dd\	-go
4F/	.	4A/	.	.	.	.	.	.	.	.
4E/	.	1G	.	.	2b\	e-	.	.	1gg	do
4D/	.	.	.	.	.	.	4ffny\	.	.	.
2C/	.	.	.	.	4cc\	-go	4ee\	.	.	.
.	.	.	.	.	4b\	.	4dd\	.	.	.
2C/	do	1c\	-go	.	4a\	.	4ccny\	.	2ee\	vo-
.	.	.	.	.	4g\	.	4b/	.	.	.
=29-	=29-	=29-	=29-	=29-	=29-	=29-	=29-	=29-	=29-	=29-
1D	vo-	.	.	0ryy	2f#X\	.	2a/	.	0dd	-bis
.	.	2B/	do	.	1g	do	2g/	do	.	.
1D	-bis	1A	vo-	.	.	.	1a	vo-	.	.
.	.	.	.	.	2f#X\	vo-	.	.	.	.
=30-	=30-	=30-	=30-	=30-	=30-	=30-	=30-	=30-	=30-	=30-
2.d\	Non	0G	-bis	0ryy	1g	-bis	1b	-bis	2r	.
.	.	.	.	.	.	.	.	.	2.dd\	Non
4c\	tur-	.	.	.	.	.	.	.	.	.
2B\	-be-	.	.	.	2r	.	1r	.	.	.
.	.	.	.	.	.	.	.	.	4ccny\	tur-
4.G\	-tur	.	.	.	2.g\	Non	.	.	2b/	-be-
8F/	.	.	.	.	.	.	.	.	.	.
=31-	=31-	=31-	=31-	=31-	=31-	=31-	=31-	=31-	=31-	=31-
4E/	.	0r	.	0ryy	.	.	2r	.	4cc#X\	-tur
4D/	cor	.	.	.	4fny\	tur-	.	.	4dd\	cor
2A\	ve-	.	.	.	2e/	-be-	2.a/	Non	2cc#X\	veſ-
*custos:D	*	*	*	*	*	*	*	*	*	*
!LO:LB:g=original	!	!	!	!	!	!	!	!	!	!
2D/	-ſtrum	.	.	.	4f#X\	-tur	.	.	1dd	-trum
.	.	.	.	.	4g\	cor	4g/	tur-	.	.
*	*ij	*	*	*	*	*	*	*	*	*
2.d\	Non	.	.	.	2a\	veſ-	2f/	-be-	.	.
=32-	=32-	=32-	=32-	=32-	=32-	=32-	=32-	=32-	=32-	=32-
.	.	2r	.	0ryy	2A/	-trum	2e/	-tur	0r	.
4c\	tur-	.	.	.	.	.	.	.	.	.
*	*	*	*	*	*custos:a	*ij	*	*	*	*ij
!	!	!	!	!	!LO:LB:g=original	!	!	!	!	!
2B\	-be-	2.g\	Non	.	2r	.	2d/	cor	.	.
4c#X\	-tur	.	.	.	2r	.	1r	.	.	.
4d\	cor	4f\	tur-	.	.	.	.	.	.	.
2c#X\	ve-	2e\	-be-	.	2.a\	Non	.	.	.	.
=33-	=33-	=33-	=33-	=33-	=33-	=33-	=33-	=33-	=33-	=33-
1d	-ſtrum	4f#X\	-tur	0ryy	.	.	2r	.	1r	.
.	.	4g\	cor	.	4b\	tur-	.	.	.	.
*	*Xij	*	*	*	*	*	*	*ij	*	*
.	.	2f#X\	veſ-	.	2a\	-be-	2.dd\	Non	.	.
1r	.	1g	-trum	.	4g\	-tur	.	.	2r	.
.	.	.	.	.	4e/	cor	4cc\	tur-	.	.
.	.	.	.	.	2e/	veſ-	2b/	-be-	2.gg\	Non
=34-	=34-	=34-	=34-	=34-	=34-	=34-	=34-	=34-	=34-	=34-
1r	.	1r	.	0ryy	2a\	-trum	4cc#X\	-tur	.	.
*	*	*	*	*	*	*Xij	*	*Xij	*	*
.	.	.	.	.	.	.	4dd\	cor	4ffny\	tur-
.	.	.	.	.	2.a\	ne-	2cc#X\	ve-	2ee\	-be-
*	*	*	*	*	*	*	*custos:dd	*	*	*
!	!	!	!	!	!	!	!LO:LB:g=original	!	!	!
2r	.	1d	ne-	.	.	.	2dd\	-ſtrum	4ff#X\	-tur
.	.	.	.	.	4b\	-que	.	.	4gg\	cor
2D/	ne-	.	.	.	2a\	for-	1dd\	ne-	2ff#X\	veſ-
=35-	=35-	=35-	=35-	=35-	=35-	=35-	=35-	=35-	=35-	=35-
2G\	-que	2B/	-que	0ryy	1g	-mi-	.	.	2gg\	-trum
*	*	*	*	*	*	*	*	*	*	*Xij
2C/	for-	2c/	for-	.	.	.	2ccny\	-que	2ee\	ne
*	*	*custos:d	*	*	*	*	*	*	*	*
!	!	!LO:LB:g=original	!	!	!	!	!	!	!	!
*	*	*lig	*	*	*	*	*	*	*	*
2.G\	-mi-	1d	-mi-	.	1g	-det	2.b/	for-	2ee\	que
*	*	*	*	*	*	*	*	*	*custos:dd	*
!	!	!	!	!	!	!	!	!	!LO:LB:g=original	!
.	.	.	.	.	.	.	.	.	1dd\	for-
4F/	.	.	.	.	.	.	4a/	.	.	.
=36-	=36-	=36-	=36-	=36-	=36-	=36-	=36-	=36-	=36-	=36-
*	*	*col	*	*	*	*ij	*	*	*	*
0E	.	2.e\	.	0ryy	2r	.	0g	.	.	.
.	.	.	.	.	2G/	ne-	.	.	4ccny\	-mi-
*	*	*Xlig	*	*	*	*	*	*	*	*
.	.	4d\	.	.	.	.	.	.	4b/	.
*	*	*Xcol	*	*	*	*	*	*	*	*
.	.	4e\	.	.	2G/	-que	.	.	1cc#X	.
.	.	4fny\	.	.	.	.	.	.	.	.
.	.	1g\	.	.	2G/	for-	.	.	.	.
=37-	=37-	=37-	=37-	=37-	=37-	=37-	=37-	=37-	=37-	=37-
1D	-det	.	.	0ryy	1d	-mi-	1a	-mi-	0dd	-det
.	.	2f#X\	-det	.	.	.	.	.	.	.
2r	.	2r	.	.	1G	-det	1b	-det	.	.
2G\	Va-	2g\	Va-	.	.	.	.	.	.	.
*	*	*	*	*	*	*Xij	*	*	*	*
=38-	=38-	=38-	=38-	=38-	=38-	=38-	=38-	=38-	=38-	=38-
2B\	-do	2g\	-do	0ryy	1r	.	1r	.	0r	.
2B\	et	2d\	et	.	.	.	.	.	.	.
2.cny\	ve-	2.e\	ve-	.	2r	.	2r	.	.	.
.	.	.	.	.	2g\	Va-	2gg\	Va-	.	.
4c\	-ni-	4e\	-ni-	.	.	.	.	.	.	.
=39-	=39-	=39-	=39-	=39-	=39-	=39-	=39-	=39-	=39-	=39-
1G	-o	2d\	-o	0ryy	2b\	-do	2gg\	-do	1r	.
.	.	2g\	ad	.	2b\	et	2dd\	et	.	.
*custos:C	*	*	*	*	*	*	*	*	*	*
!LO:LB:g=original	!	!	!	!	!	!	!	!	!	!
4C/	ad	2g\	vos	.	2.cc\	ve-	2.ee\	ve-	2r	.
4D/	.	.	.	.	.	.	.	.	.	.
*	*	*	*ij	*	*	*	*	*	*	*
4E/	.	2G/	Va-	.	.	.	.	.	2gg\	Va-
4C/	.	.	.	.	4cc\	-ni-	4ee\	-ni-	.	.
=40-	=40-	=40-	=40-	=40-	=40-	=40-	=40-	=40-	=40-	=40-
1G	.	2B/	-do	0ryy	2b\	-o	1dd	-o	2gg\	-do
.	.	2B/	et	.	2g\	et	.	.	2dd\	et
*	*	*	*	*	*custos:g	*	*	*	*	*
!	!	!	!	!	!LO:LB:g=original	!	!	!	!	!
1C	vos	2.c/	ve-	.	2.g\	ve-	2cc\	ad	2.ee\	ve-
.	.	.	.	.	.	.	2.g/	vos	.	.
.	.	4c/	-ni-	.	4cc\	-ni-	.	.	4ee\	-ni-
=41-	=41-	=41-	=41-	=41-	=41-	=41-	=41-	=41-	=41-	=41-
0r	.	2G/	-o	0ryy	2b\	-o	.	.	1.dd	-o
.	.	.	.	.	.	.	4a/	.	.	.
.	.	2G/	ad	.	1g	ad	4b/	.	.	.
.	.	.	.	.	.	.	4g/	.	.	.
.	.	1d	vos	.	.	.	1a	.	.	.
.	.	.	.	.	2f#X\	vos	.	.	2dd\	ad
=42-	=42-	=42-	=42-	=42-	=42-	=42-	=42-	=42-	=42-	=42-
*M3/1	*	*M3/1	*Xij	*yyM3/1	*M3/1	*	*M3/1	*	*M3/1	*
*met(O|3/2)	*	*met(O|3/2)	*	*	*met(O|3/2)	*	*met(O|3/2)	*	*met(O|3/2)	*
!LO:N:vis=00	!	!	!	!	!	!	!	!	!	!
1%3r	.	1G	ſi	1%3ryy	1g	ſi	1b	ſi	0dd	vos
.	.	1G	di-	.	1g	di-	1b	di-	.	.
.	.	1B	-li-	.	1g	-li-	1dd	-li-	1r	.
*	*	*custos:c	*	*	*	*	*custos:cc	*	*	*
!	!	!LO:LB:g=original	!	!	!	!	!LO:LB:g=original	!	!	!
=43-	=43-	=43-	=43-	=43-	=43-	=43-	=43-	=43-	=43-	=43-
1%3ryy	.	1c	-ge-	1%3ryy	1e	-ge-	1cc	-ge-	1%3r	.
.	.	1d	-re-	.	1f#X	-re-	1a	-re-	.	.
.	.	1d	-tis	.	1f#	-tis	1a	-tis	.	.
=44-	=44-	=44-	=44-	=44-	=44-	=44-	=44-	=44-	=44-	=44-
*	*	*	*	*	*	*	*col	*	*	*
1C	ſi	1c	me	1%3ryy	1g	me	1cc	me	1ee	ſi
1C	di-	0c	gau-	.	0g	gau-	0ee	gau-	1ee	di-
1E	-li-	.	.	.	.	.	.	.	1gg	-li-
=45-	=45-	=45-	=45-	=45-	=45-	=45-	=45-	=45-	=45-	=45-
*	*	*col	*	*	*col	*	*	*	*	*
1F	-ge-	1A	-de-	1%3ryy	1a	-de-	0cc	-de-	1ffny	-ge-
1G	-re-	0d	-re-	.	0g	-re-	.	.	1dd	-re-
1G	-tis	.	.	.	.	.	1b	-re-	1dd	-tis
*	*	*Xcol	*	*	*Xcol	*	*Xcol	*	*	*
=46-	=46-	=46-	=46-	=46-	=46-	=46-	=46-	=46-	=46-	=46-
1C	me	1c	-tis	1%3ryy	1g	-tis	0.cc	-tis	1ee	me
1c	gau-	1e	gau-	.	1g	gau-	.	.	1ee	gau-
1c	-de-	1e	-de-	.	1g	-de-	.	.	1ccny	-de-
*	*	*	*	*	*	*	*	*	*custos:b-	*
!	!	!	!	!	!	!	!	!	!LO:LB:g=original	!
=47-	=47-	=47-	=47-	=47-	=47-	=47-	=47-	=47-	=47-	=47-
0G	-re-	0d	-re-	1%3ryy	0g	-re-	1%3r	.	0b-X	-re-
1B-X	-tis	1d	-tis	.	1d	-tis	.	.	1g	-tis
=48-	=48-	=48-	=48-	=48-	=48-	=48-	=48-	=48-	=48-	=48-
1.A	v-	1.c#X	v-	1%3ryy	1.e	v-	1r	.	1.a	v-
.	.	.	.	.	.	.	1ee	gau-	.	.
2A\	-ti-	2c#/	-ti-	.	2e/	-ti-	.	.	2a/	-ti-
1A	-quæ	1c#	-quæ	.	1e	-quæ	1ee	-de-	1a	-que
=49-	=49-	=49-	=49-	=49-	=49-	=49-	=49-	=49-	=49-	=49-
0D	qui-	0d	ui-	1%3ryy	0a	qui-	0ff#X	-re-	1r	.
.	.	.	.	.	.	.	.	.	1dd	gau-
1D	-a	1d	-a	.	1a	-a	1ff#	-tis	1dd	-de-
*custos:G	*	*	*	*	*custos:g	*	*	*	*	*
!LO:LB:g=original	!	!	!	!	!LO:LB:g=original	!	!	!	!	!
=50-	=50-	=50-	=50-	=50-	=50-	=50-	=50-	=50-	=50-	=50-
0G	va-	0d	va-	1%3ryy	0g	va-	1.gg	v-	0bny	-re-
.	.	.	.	.	.	.	2gg\	-ti-	.	.
1Bny	-do	1G	-do	.	1g	-do	1gg	-quæ	1dd	-tis
=51-	=51-	=51-	=51-	=51-	=51-	=51-	=51-	=51-	=51-	=51-
*col	*	*	*	*	*	*	*	*	*	*
1c	ad	0g	ad	1%3ryy	1r	.	0ee	qui-	1.cc	v-
0A	Pa-	.	.	.	1c	qui-	.	.	.	.
.	.	.	.	.	.	.	.	.	2cc\	-ti-
.	.	1fny	Pa-	.	1c	-a	1cc	-a	1a	-que
*Xcol	*	*	*	*	*	*	*	*	*	*
=52-	=52-	=52-	=52-	=52-	=52-	=52-	=52-	=52-	=52-	=52-
*	*	*col	*	*	*	*	*	*	*	*
0.G	-trem	1g	-trem	1%3ryy	1d	va-	2b/	va-	1r	.
.	.	.	.	.	.	.	2a/	.	.	.
*	*	*	*ij	*	*	*	*	*	*	*
.	.	0d	qui-	.	1g	-do	2b/	.	1dd	qui-
.	.	.	.	.	.	.	2cc\	.	.	.
.	.	.	.	.	0g	ad	1dd	.	1b	-a
*	*	*Xcol	*	*	*	*	*custos:cc	*	*	*
!	!	!	!	!	!	!	!LO:LB:g=original	!	!	!
=53-	=53-	=53-	=53-	=53-	=53-	=53-	=53-	=53-	=53-	=53-
*	*	*	*	*	*	*	*col	*	*col	*
!LO:N:vis=00	!	!	!	!	!	!	!	!	!	!
1%3r	.	1e	-a	1%3ryy	.	.	0cc	-do	1gg	va-
.	.	1f	va-	.	1.a	Pa-	.	.	1ff	-do
.	.	1g	-do	.	.	.	0b	ad	0dd	ad
.	.	.	.	.	2g\	.	.	.	.	.
=54-	=54-	=54-	=54-	=54-	=54-	=54-	=54-	=54-	=54-	=54-
*	*	*col	*	*	*	*	*	*	*	*
1%3ryy	.	1G	ad	1%3ryy	0g	.	.	.	.	.
.	.	0d	Pa-	.	.	.	0a	Pa-	0dd	Pa-
.	.	.	.	.	1f#X	.	.	.	.	.
*	*	*Xcol	*	*	*	*	*Xcol	*	*Xcol	*
=55-	=55-	=55-	=55-	=55-	=55-	=55-	=55-	=55-	=55-	=55-
1r	.	1G	-trem	1%3ryy	1g	-trẽ(m)	1b	-trem	1dd	-trẽ(m)
*	*ij	*	*Xij	*	*	*ij	*	*ij	*	*ij
1G	qui-	1G	qui-	.	1g	qui-	1dd	qui-	1b	qui-
1E	-a	1G	-a	.	1g	-a	1ee	-a	1cc#X	-a
=56-	=56-	=56-	=56-	=56-	=56-	=56-	=56-	=56-	=56-	=56-
0D	va-	0d	va-	1%3ryy	0a	va-	0ff#X	va-	0dd	va-
!	!	!	!	!	!	!	!	!	!LO:TX:t=P:problem:punctum divisionis	!
1BB	-do	1d	-do	.	1g	-do	1gg	-do	1dd	-do
=57-	=57-	=57-	=57-	=57-	=57-	=57-	=57-	=57-	=57-	=57-
!LO:TX:t=P:problem:punctum divisionis	!	!LO:TX:t=P:problem:punctum divisionis	!	!	!	!	!	!	!	!
*	*	*	*	*	*	*	*col	*	*	*
1C	ad	1G	ad	1%3ryy	0g	ad	1ee	ad	1ccny	ad
0D	Pa-	0d	pa-	.	.	.	0dd	Pa-	0a	Pa-
.	.	.	.	.	1f#X	Pa-	.	.	.	.
*	*	*	*	*	*	*	*Xcol	*	*custos:b	*
!	!	!	!	!	!	!	!	!	!LO:LB:g=original	!
=58-	=58-	=58-	=58-	=58-	=58-	=58-	=58-	=58-	=58-	=58-
*M2/1	*	*M2/1	*	*yyM2/1	*M2/1	*	*M2/1	*	*M2/1	*
*met(C|)	*	*met(C|)	*	*yymet(C|)	*met(C|)	*	*met(C|)	*	*met(C|)	*
1G	-trem	1d	-trem	0ryy	2g\	-trem	0dd	-trem	2b/	-trẽ(m)
*	*Xij	*	*	*	*	*Xij	*	*	*	*
.	.	.	.	.	2.g\	Al-	.	.	2.g/	Al-
1r	.	0r	.	.	.	.	.	.	.	.
.	.	.	.	.	4fny\	.	.	.	4a/	.
.	.	.	.	.	2d/	.	.	.	2b/	.
*	*	*	*	*	*	*	*	*Xij	*	*
=59-	=59-	=59-	=59-	=59-	=59-	=59-	=59-	=59-	=59-	=59-
1r	.	.	.	0ryy	2e/	-le-	1r	.	2cc\	-le-
.	.	.	.	.	2f#X\	-lu-	.	.	2a/	-lu-
2r	.	2r	.	.	1g	-ia	2r	.	2b/	-ia
2.G\	Al-	2.g\	Al-	.	.	.	2.b/	Al-	4dd\	Al-
.	.	.	.	.	.	.	.	.	4cc\	.
=60-	=60-	=60-	=60-	=60-	=60-	=60-	=60-	=60-	=60-	=60-
.	.	.	.	0ryy	0r	.	.	.	4b/	.
4A\	.	4f\	.	.	.	.	4cc\	.	4a/	.
2B\	.	2d\	.	.	.	.	2dd\	.	2.g/	.
2c\	-le-	2e\	-le-	.	.	.	2cc\	-le-	.	.
.	.	.	.	.	.	.	.	.	4g/	-le-
2A\	-lu-	2f#X\	-lu-	.	.	.	2cc\	-lu-	2a/	-lu-
*	*	*	*	*	*custos:d	*	*	*	*	*
!	!	!	!	!	!LO:LB:g=original	!	!	!	!	!
=61-	=61-	=61-	=61-	=61-	=61-	=61-	=61-	=61-	=61-	=61-
1G	-ia	2g\	-ia	0ryy	2r	.	1b	-ia	2d/	-ia
*	*	*	*ij	*	*	*ij	*	*	*	*Xij
.	.	4G/	Al-	.	2.d/	Al-	.	.	2.dd\	Al-
.	.	4A/	.	.	.	.	.	.	.	.
1r	.	4B/	.	.	.	.	0r	.	.	.
.	.	4cny/	.	.	4e/	.	.	.	4cc\	.
.	.	2d\	.	.	2f#X\	.	.	.	2a/	.
*	*	*custos:G	*	*	*	*	*	*	*	*
!	!	!LO:LB:g=original	!	!	!	!	!	!	!	!
=62-	=62-	=62-	=62-	=62-	=62-	=62-	=62-	=62-	=62-	=62-
1r	.	2G/	-le-	0ryy	2g\	-le-	.	.	2b/	-le-
.	.	1g	-lu-	.	2e/	-lu-	.	.	2cc#X\	-lu-
2r	.	.	.	.	1d	-ia	2r	.	2dd\	-ia
*	*ij	*	*	*	*	*Xij	*	*ij	*	*ij
2.d\	Al-	4f#X\	.	.	.	.	2.dd\	Al-	1a/	Al-
.	.	4e\	.	.	.	.	.	.	.	.
=63-	=63-	=63-	=63-	=63-	=63-	=63-	=63-	=63-	=63-	=63-
.	.	4f#X\	.	0ryy	0r	.	.	.	.	.
4c\	.	4g\	.	.	.	.	4ee\	.	.	.
2A\	.	2a\	.	.	.	.	2ff#X\	.	2ccny\	-le-
*custos:B	*	*	*	*	*	*	*custos:gg	*	*	*
!LO:LB:g=original	!	!	!	!	!	!	!LO:LB:g=original	!	!	!
2B\	-le-	2d\	.	.	.	.	2gg\	-le-	2b/	-lu-
2c#X\	-lu-	2e\	.	.	.	.	2ee\	-lu-	1a/	-ia
*	*	*	*	*	*	*	*	*	*	*Xij
=64-	=64-	=64-	=64-	=64-	=64-	=64-	=64-	=64-	=64-	=64-
1d	-ia	2.fny\	.	0ryy	2r	.	2dd\	-ia	.	.
.	.	.	.	.	2.d/	Al-	2.ffny\	Al-	2.dd\	Al-
.	.	4g\	.	.	.	.	.	.	.	.
1r	.	2a\	.	.	.	.	.	.	.	.
.	.	.	.	.	4e/	.	4ee\	.	4cc\	.
.	.	2d\	-ia	.	2f#X\	.	2dd\	.	2a/	.
*	*	*	*Xij	*	*	*	*	*	*custos:b	*
!	!	!	!	!	!	!	!	!	!LO:LB:g=original	!
=65-	=65-	=65-	=65-	=65-	=65-	=65-	=65-	=65-	=65-	=65-
1r	.	1r	.	0ryy	2g\	-le-	2dd\	-le-	2b/	-le-
.	.	.	.	.	2e/	-lu-	2ee\	-lu-	2cc#X\	-lu-
2r	.	2r	.	.	4d/	-ia.	1a	-ia	2dd\	-ia
.	.	.	.	.	4e/	.	.	.	.	.
*	*	*	*	*	*	*ij	*	*Xij	*	*ij
2.D/	Al-	2.d\	Al-	.	4f#X\	.	.	.	4d/	Al-
.	.	.	.	.	4g\	.	.	.	4e/	.
=66-	=66-	=66-	=66-	=66-	=66-	=66-	=66-	=66-	=66-	=66-
.	.	.	.	0ryy	2a\	.	0r	.	4f#X/	.
4E/	.	4c/	.	.	.	.	.	.	4g/	.
2F#X/	.	2A/	.	.	1d	Al-	.	.	2.a/	.
2G\	-le-	2B/	.	.	.	.	.	.	.	.
.	.	.	.	.	.	.	.	.	4g/	.
2E/	-lu-	2G/	-le-	.	2c/	-le-	.	.	1g/	-le-
=67-	=67-	=67-	=67-	=67-	=67-	=67-	=67-	=67-	=67-	=67-
0D	-ia	0A	-lu-	0ryy	1d	-lu-	2r	.	.	.
.	.	.	.	.	.	.	2.dd\	Al-	4f#X/	.
.	.	.	.	.	.	.	.	.	4e/	.
.	.	.	.	.	1d	-ia	.	.	1f#X	-lu-
.	.	.	.	.	.	.	4cc\	.	.	.
.	.	.	.	.	.	.	2a/	.	.	.
*	*Xij	*	*	*	*	*	*	*	*	*
=68-	=68-	=68-	=68-	=68-	=68-	=68-	=68-	=68-	=68-	=68-
2r	.	00G	-ia.	0ryy	2r	.	1b	-le-	1g	-ia
2.E/	Al-	.	.	.	2.g\	Al-	.	.	.	.
.	.	.	.	.	.	.	2cc\	-lu-	1r	.
4D/	.	.	.	.	4fny\	.	.	.	.	.
2BB/	.	.	.	.	2d/	.	2dd\	.	.	.
*	*	*	*	*	*	*	*	*	*	*Xij
=69-	=69-	=69-	=69-	=69-	=69-	=69-	=69-	=69-	=69-	=69-
2.C/	-le-	.	.	0ryy	2e/	-le-	2g/	-ia	2r	.
*	*	*	*	*	*	*	*	*ij	*	*
.	.	.	.	.	2c/	-lu-	2.gg\	Al-	2.ee\	Al-
4D/	.	.	.	.	.	.	.	.	.	.
!	!	!	!	!	!LO:N:vis=00	!	!	!	!	!
4E/	.	.	.	.	1%5g	-ia.	.	.	.	.
4Fny/	.	.	.	.	.	.	4ff\	.	4dd\	.
2G\	.	.	.	.	.	.	2dd\	.	2b/	.
=70-	=70-	=70-	=70-	=70-	=70-	=70-	=70-	=70-	=70-	=70-
0C	-lu-	00ryy	.	0ryy	.	.	2ee\	-le-	2ccny\	-le-
.	.	.	.	.	.	.	2.cc\	-lu-	2.ee\	-lu-
.	.	.	.	.	.	.	4dd\	.	4dd\	.
.	.	.	.	.	.	.	2ee\	.	2cc\	.
=71-	=71-	=71-	=71-	=71-	=71-	=71-	=71-	=71-	=71-	=71-
!LO:N:vis=00	!	!	!	!LO:N:vis=00	!	!	!LO:N:vis=00	!	!LO:N:vis=00	!
0G	-ia.	.	.	0ryy	.	.	0dd	-ia	0b	-ia.
==	==	==	==	==	==	==	==	==	==	==
*-	*-	*-	*-	*-	*-	*-	*-	*-	*-	*-
!!!system-decoration: [(s1,s2,s3,s4,s5,s6)]
!!!ENC: Mateusz Solarz
!!!END: 2022-07-12
!!!ENC: Jan Barakat
!!!END: 2022-08-09
!!!YEC: Copyright 2022 Narodowy Instytut Fryderyka Chopina (https://polishscores.org)
!!!YEM: License CC-BY-4.0 (https://creativecommons.org/licenses/by/4.0)
